X: 37093
T: Silver Vale, The
R: jig
M: 6/8
K: Dmajor
|:A|~d3 AGF|dAA AGF|~E3 GFE|A,CE GFE|
DFA GAB|Ace d2e|fed cBA|Gfe d2:|
|:e|fdf ~a3|f/g/af def|eBe ~g3|e/f/ge Ace|
fdf gBg|aAa bag|fed cBA|Gfe d2:|

